assets/clone.svg

<svg fill="none" height="40" viewBox="0 0 40 40" width="40" xmlns="http://www.w3.org/2000/svg" xmlns:xlink="http://www.w3.org/1999/xlink"><clipPath id="a"><path d="m0 0h40v40h-40z"/></clipPath><g clip-path="url(#a)"><path d="m40 20c0-11.0457-8.9543-20-20-20s-20 8.9543-20 20 8.9543 20 20 20 20-8.9543 20-20z" fill="#f55d3e"/><path d="m24.375 15h-11.25c-.1658 0-.3247.0658-.4419.1831-.1173.1172-.1831.2761-.1831.4419v11.25c0 .1658.0658.3247.1831.4419.1172.1173.2761.1831.4419.1831h11.25c.1658 0 .3247-.0658.4419-.1831.1173-.1172.1831-.2761.1831-.4419v-11.25c0-.1658-.0658-.3247-.1831-.4419-.1172-.1173-.2761-.1831-.4419-.1831zm-.625 11.25h-10v-10h10zm3.75-13.125v11.25c0 .1658-.0658.3247-.1831.4419-.1172.1173-.2761.1831-.4419.1831s-.3247-.0658-.4419-.1831c-.1173-.1172-.1831-.2761-.1831-.4419v-10.625h-10.625c-.1658 0-.3247-.0658-.4419-.1831-.1173-.1172-.1831-.2761-.1831-.4419s.0658-.3247.1831-.4419c.1172-.1173.2761-.1831.4419-.1831h11.25c.1658 0 .3247.0658.4419.1831.1173.1172.1831.2761.1831.4419z" fill="#fff"/></g></svg>

<svg width="40" height="40" viewBox="0 0 40 40" fill="none" xmlns="http://www.w3.org/2000/svg">
<g clip-path="url(#clip0_3368_36)">
<path d="M40 20C40 8.9543 31.0457 0 20 0C8.9543 0 0 8.9543 0 20C0 31.0457 8.9543 40 20 40C31.0457 40 40 31.0457 40 20Z" fill="#F55D3E"/>
<path d="M24.375 15H13.125C12.9592 15 12.8003 15.0658 12.6831 15.1831C12.5658 15.3003 12.5 15.4592 12.5 15.625V26.875C12.5 27.0408 12.5658 27.1997 12.6831 27.3169C12.8003 27.4342 12.9592 27.5 13.125 27.5H24.375C24.5408 27.5 24.6997 27.4342 24.8169 27.3169C24.9342 27.1997 25 27.0408 25 26.875V15.625C25 15.4592 24.9342 15.3003 24.8169 15.1831C24.6997 15.0658 24.5408 15 24.375 15ZM23.75 26.25H13.75V16.25H23.75V26.25ZM27.5 13.125V24.375C27.5 24.5408 27.4342 24.6997 27.3169 24.8169C27.1997 24.9342 27.0408 25 26.875 25C26.7092 25 26.5503 24.9342 26.4331 24.8169C26.3158 24.6997 26.25 24.5408 26.25 24.375V13.75H15.625C15.4592 13.75 15.3003 13.6842 15.1831 13.5669C15.0658 13.4497 15 13.2908 15 13.125C15 12.9592 15.0658 12.8003 15.1831 12.6831C15.3003 12.5658 15.4592 12.5 15.625 12.5H26.875C27.0408 12.5 27.1997 12.5658 27.3169 12.6831C27.4342 12.8003 27.5 12.9592 27.5 13.125Z" fill="white"/>
</g>
<defs>
<clipPath id="clip0_3368_36">
<rect width="40" height="40" fill="white"/>
</clipPath>
</defs>
</svg>
